X:1
T:Thy presence why withdraw’st thou, Lord?
T:Thy presence why withdraw’st thou, Lord? (Joseph Stephenson)
C:Joseph Stephenson
Z:p35, Church Harmony
Z:Sacred to Devotion,
Z:4th ed. London: [c1763-1771]
%%score [ 1 2 3 4 ]
L:1/8
M:2/2
K:Dmin
V:1 treble nm="SOPRANO" snm="S."
V:2 treble nm="ALTO" snm="A."
V:3 treble-8 transpose=-12 nm="TENOR" snm="T."
V:4 bass nm="BASS" snm="B."
V:1
 d4 e2 f2 | (f>e d2) (c2 B2) | (cd) e2 d4 | c4 d2 e2 | f4 (e3 d) | ^c8 | e4 f2 e2 | %7
w: No long- er|let _ _ the _|wick- * ed vaunt,|And proud- ly|boast- ing, _|say,|Tush, God re-|
w: Thy pre- sence|why _ _ with- *|draw’st _ thou, Lord?|Why hid’st thou|now thy _|face,|When dis- mal|
w: The wick- ed,|swell’d _ _ with _|law- * less pride,|Have made the|poor their _|prey;|O let them|
 (f>e d2) (c>d e2) | f2 (gf) e4 | z8 | z8 | z8 | (d2 cB AGAB) | (cB) A2 d2 e2 | d8 |] %15
w: gards _ _ not _ _|what we _ do;||||He _ _ _ _ _ _|ne- * ver will re-|pay.|
w: times _ _ of _ _|deep dis- * tress||||Call _ _ _ _ _ _|for _ thy wont- ed|grace?|
w: fall _ _ by _ _|those de- * signs||||Which _ _ _ _ _ _|they _ for o- thers|lay!|
V:2
 F4 A2 A2 | A4 (G>A B2) | A2 A2 A4 | A4 F2 G2 | A4 ^G4 | A8 | A4 A2 A2 | B4 (A2 G2) | (GA) B2 A4 | %9
w: No long- er|let the _ _|wick- ed vaunt,|And proud- ly|boast- ing,|say,|Tush, God re-|gards not _|what _ we do;|
w: Thy pre- sence|why with- * *|draw’st thou, Lord?|Why hid’st thou|now thy|face,|When dis- mal|times of _|deep _ dis- tress|
w: The wick- ed,|swell’d with _ _|law- less pride,|Have made the|poor their|prey;|O let them|fall by _|those _ de- signs|
 z8 | z8 | (A2 GF EDEF) | GEAA (ABc)B | A^G A4 (A=G) | ^F8 |] %15
w: ||He _ _ _ _ _ _|ne- ver will re- pay, _ _ he|ne- ver will re- *|pay.|
w: ||Call _ _ _ _ _ _|for thy wont- ed grace, _ _ call|for thy wont- ed _|grace?|
w: ||Which _ _ _ _ _ _|they for o- thers lay, _ _ which|they for o- thers _|lay!|
V:3
 A4 c2 A2 | (d>e f2) e4 | d2 ^c2 d4 | e4 f2 e2 | d4 B4 | A8 | A4 d2 ^c2 | (d>e f2) e4 | %8
w: No long- er|let _ _ the|wick- ed vaunt,|And proud- ly|boast- ing,|say,|Tush, God re-|gards _ _ not|
w: Thy pre- sence|why _ _ with-|draw’st thou, Lord?|Why hid’st thou|now thy|face,|When dis- mal|times _ _ of|
w: The wick- ed,|swell’d _ _ with|law- less pride,|Have made the|poor their|prey;|O let them|fall _ _ by|
 d2 (ed) ^c4 | z8 | (d2 cB AGAB) | cABc (d2 ^c2) | z2 d2 edcB | cd (Te3 d) ^c2 | d8 |] %15
w: what we _ do;||He _ _ _ _ _ _|ne- ver will re- pay, _|he ne- ver will, he|ne- ver will _ re-|pay.|
w: deep dis- * tress||Call _ _ _ _ _ _|for thy wont- ed grace, _|call for thy wont- ed,|for thy wont- * ed|grace?|
w: those de- * signs||Which _ _ _ _ _ _|they for o- thers lay, _|which they for o- thers,|they for o- * thers|lay!|
V:4
 D,4 A,2 F,2 | D,4 (E,>F, G,2) | A,2 A,,2 D,4 | A,4 D2 C2 | (F,>E, D,2) E,4 | A,,8 | A,4 D,2 A,2 | %7
w: No long- er|let the _ _|wick- ed vaunt,|And proud- ly|boast- * * ing,|say,|Tush, God re-|
w: Thy pre- sence|why with- * *|draw’st thou, Lord?|Why hid’st thou|now _ _ thy|face,|When dis- mal|
w: The wick- ed,|swell’d with _ _|law- less pride,|Have made the|poor _ _ their|prey;|O let them|
 G,4 (A,>B, C2) | B,2 G,2 A,4 | (A,2 G,F, E,D,E,F,) | G,E, A,3 (B,/C/) D2 | %11
w: gards not _ _|what we do;|He _ _ _ _ _ _|ne- ver will re- * pay,|
w: times of _ _|deep dis- tress|Call _ _ _ _ _ _|for thy wont- ed _ grace,|
w: fall by _ _|those de- signs|Which _ _ _ _ _ _|they for o- thers _ lay,|
"^Notes:The alto part is given in alto clef in the source.Fragments only of the first verse of the text are underlaid in the source: this has been given in full in the presentedition, with four additional verses selected from the text and underlaid editorially.The last G in the alto part in the penultimate bar has no accidental in the source: the natural sign has been addededitorially. The repetition of accidentals within a bar elsewhere in Stephenson’s Church Harmony Sacred to Devotion(for example, in the anthem ‘Praise the Lord, ye servants’, pp9-11) suggests that the book assumes a conventionof accidentals only applying to the notes they immediately precede, and not to subsequent occurrences of the samenote for the rest of the bar.The colourful harmonies of this setting, including both diminished fifths and diminished thirds, reflect the impassionedtext: Stephenson’s preface to the book notes that the compositions have ‘the Energy of our English Wordsparticularly express’d, with an Air suited to each different Subject’." z2 E,2 z2 A,2 | %12
w: he, he,|
w: call, call,|
w: which, which,|
 z2 D2 CB,A,G, | F,E, A,4 A,,2 | D,8 |] %15
w: he ne- ver will, he|ne- ver will re-|pay.|
w: call for thy wont- ed,|for thy wont- ed|grace?|
w: which they for o- thers,|they for o- thers|lay!|

